svg/u1f325.svg

<svg viewBox="0 0 128 128" xmlns="http://www.w3.org/2000/svg">
  <path d="M29.12,39.22c-4.79,6.16-4.71,17.1,1.41,22.52c6.95,6.15,16.73,6.09,22.88,0.43 c7.38-6.79,6.95-18.09,0.43-24.48C47.29,31.25,35.58,30.91,29.12,39.22z" fill="#FCC11A"/>
  <path d="M36.81,37.11c-1.89-0.84-3.97,1.44-4.87,3.01c-0.9,1.56-1.74,4.63,0.18,5.41s3.31-0.54,4.69-2.83 C38.2,40.41,38.98,38.07,36.81,37.11z" fill="#FEE269"/>
  <path d="M41.74,28.53c-0.46,0.86-0.3,1.52,0.61,1.73c0.91,0.22,6.59,1.14,7.07,1.17 c0.69,0.04,0.95-0.48,0.87-1.08s-1.47-9.11-1.6-9.89c-0.13-0.78-0.95-1.56-1.73-0.52S42.09,27.88,41.74,28.53z" fill="#FFA722"/>
  <path d="M56.45,34.42c-0.89,0.28-0.87,0.82-0.39,1.52c0.48,0.69,3.77,5.72,4.08,6.07 c0.3,0.35,0.82,0.43,1.26-0.09c0.43-0.52,5.85-8.11,6.25-8.59c0.65-0.78,0.26-1.6-0.74-1.34C66.14,32.19,57.01,34.25,56.45,34.42z" fill="#FFA722"/>
  <path d="M22.62,57.5c0.61-1,1.39-0.74,1.95,0.22c0.39,0.65,3.64,5.03,3.95,5.51c0.3,0.48,0.43,1.39-0.52,1.6 c-0.95,0.22-8.72,2.26-9.93,2.47c-1.21,0.22-1.91-0.74-1.13-1.78C17.39,64.91,22.27,58.06,22.62,57.5z" fill="#FFA722"/>
  <path d="M20.97,49.95c1.11,0.49,1.63,0.32,1.86-0.48c0.3-1.04,1.21-5.81,1.26-6.9 c0.03-0.71-0.26-1.39-1.34-1.21c-1.08,0.17-8.89,1.26-9.89,1.6c-1.16,0.4-1.08,1.68-0.3,2.08C13.47,45.53,20.19,49.6,20.97,49.95z" fill="#FFA722"/>
  <path d="M34.46,31.74c0.62-0.5,0.43-1.21-0.13-1.6c-0.56-0.39-7.53-5.43-8.41-6.12 c-0.78-0.61-1.73-0.39-1.47,1c0.19,1,2.41,9.72,2.56,10.32c0.17,0.69,0.69,1.04,1.3,0.61C28.91,35.51,33.81,32.26,34.46,31.74z" fill="#FFA722"/>
  <path d="M107.33,76.86c-0.14-0.46,4.52-33.89-25.85-38.83c-27.2-4.42-33.1,20-33.1,20s-10.33-1.73-17.76,5.61 c-6.13,6.05-6.93,12.86-6.93,12.86S16.1,75,9.46,80.07C2.78,85.17,4.41,90.5,4.41,90.5l15.36,10.62l90.55-2.72l12.86-3.44 c0,0,2.21-7.81-5.25-13.8C111.91,76.33,107.33,76.86,107.33,76.86z" fill="#E2EBEE"/>
  <path d="M30.29,90.24c0,0-5.41,3.54-14.13,2.6c-9.99-1.08-11.82-4.86-11.82-4.86s-1.09,7.4,4.93,12.39 c5.44,4.51,12.29,3.35,21.83,3.41s73.63-0.03,79.69,0.03c4.96,0.05,8.97-1.5,11.09-5.63c2.01-3.9,1.55-6.02,1.55-6.02 s-3.61,2.24-11.47,1.32c-6.79-0.79-10.11-3.53-10.11-3.53s-8.63,4.42-23.04,4.24c-15.1-0.19-20.23-5.73-20.23-5.73 s-4.9,4.64-15.67,4.37S30.29,90.24,30.29,90.24z" fill="#B9CED3"/>
</svg>

<svg viewBox="0 0 128 128" xmlns="http://www.w3.org/2000/svg">
  <defs/>
  <path d="M29.12,39.22 C24.33,45.38 24.41,56.32 30.53,61.74 C37.48,67.89 47.26,67.83 53.41,62.17 C60.79,55.38 60.36,44.08 53.84,37.69 C47.29,31.25 35.58,30.91 29.12,39.22 Z" fill="#FCC11A"/>
  <path d="M36.81,37.11 C34.92,36.27 32.84,38.55 31.94,40.12 C31.04,41.68 30.2,44.75 32.12,45.53 C34.04,46.31 35.43,44.99 36.81,42.7 C38.2,40.41 38.98,38.07 36.81,37.11 Z" fill="#FEE269"/>
  <path d="M41.74,28.53 C41.28,29.39 41.44,30.05 42.35,30.26 C43.26,30.48 48.94,31.4 49.42,31.43 C50.11,31.47 50.37,30.95 50.29,30.35 C50.21,29.75 48.82,21.24 48.69,20.46 C48.56,19.68 47.74,18.9 46.96,19.94 C46.18,20.98 42.09,27.88 41.74,28.53 Z" fill="#FFA722"/>
  <path d="M56.45,34.42 C55.56,34.7 55.58,35.24 56.06,35.94 C56.54,36.63 59.83,41.66 60.14,42.01 C60.44,42.36 60.96,42.44 61.4,41.92 C61.83,41.4 67.25,33.81 67.65,33.33 C68.3,32.55 67.91,31.73 66.91,31.99 C66.14,32.19 57.01,34.25 56.45,34.42 Z" fill="#FFA722"/>
  <path d="M22.62,57.5 C23.23,56.5 24.01,56.76 24.57,57.72 C24.96,58.37 28.21,62.75 28.52,63.23 C28.82,63.71 28.95,64.62 28,64.83 C27.05,65.05 19.28,67.09 18.07,67.3 C16.86,67.52 16.16,66.56 16.94,65.52 C17.39,64.91 22.27,58.06 22.62,57.5 Z" fill="#FFA722"/>
  <path d="M20.97,49.95 C22.08,50.44 22.6,50.27 22.83,49.47 C23.13,48.43 24.04,43.66 24.09,42.57 C24.12,41.86 23.83,41.18 22.75,41.36 C21.67,41.53 13.86,42.62 12.86,42.96 C11.7,43.36 11.78,44.64 12.56,45.04 C13.47,45.53 20.19,49.6 20.97,49.95 Z" fill="#FFA722"/>
  <path d="M34.46,31.74 C35.08,31.24 34.89,30.53 34.33,30.14 C33.77,29.75 26.8,24.71 25.92,24.02 C25.14,23.41 24.19,23.63 24.45,25.02 C24.64,26.02 26.86,34.74 27.01,35.34 C27.18,36.03 27.7,36.38 28.31,35.95 C28.91,35.51 33.81,32.26 34.46,31.74 Z" fill="#FFA722"/>
  <path d="M107.33,76.86 C107.19,76.4 111.85,42.97 81.48,38.03 C54.28,33.61 48.38,58.03 48.38,58.03 C48.38,58.03 38.05,56.3 30.62,63.64 C24.49,69.69 23.69,76.5 23.69,76.5 C23.69,76.5 16.1,75 9.46,80.07 C2.78,85.17 4.41,90.5 4.41,90.5 L19.77,101.12 L110.32,98.4 L123.18,94.96 C123.18,94.96 125.39,87.15 117.93,81.16 C111.91,76.33 107.33,76.86 107.33,76.86 Z" fill="#E2EBEE"/>
  <path d="M30.29,90.24 C30.29,90.24 24.88,93.78 16.16,92.84 C6.17,91.76 4.34,87.98 4.34,87.98 C4.34,87.98 3.25,95.38 9.27,100.37 C14.71,104.88 21.56,103.72 31.1,103.78 C40.64,103.84 104.73,103.75 110.79,103.81 C115.75,103.86 119.76,102.31 121.88,98.18 C123.89,94.28 123.43,92.16 123.43,92.16 C123.43,92.16 119.82,94.4 111.96,93.48 C105.17,92.69 101.85,89.95 101.85,89.95 C101.85,89.95 93.22,94.37 78.81,94.19 C63.71,94 58.58,88.46 58.58,88.46 C58.58,88.46 53.68,93.1 42.91,92.83 C32.14,92.56 30.29,90.24 30.29,90.24 Z" fill="#B9CED3"/>
</svg>
